!!!!SEGMENT: pl-sa--497-a-viii-137--001_anonim--nihil-est-in-mundo-sonata.krn
!!!cenid: 17xx:1292
!!!COM: Anonim
!!!COM-rismid: pe30004985
!!!CDT:
!!!CNT:
!!!OPR: Nihil est in mundo
!!!OTL: Sonata
!!!OMV: 001
!!!PDT:
!!!AGN:
!!!SMS-siglum: PL-SA
!!!SMS-shelfmark: 497/A VIII 137
!!!SMS-shelfwork: 001-001 M
!!!SMS-variant:
!!!SMS-altvar:
!!!NIFC-rismid: 1001069546
!!!URL-scan: http://bc.bdsandomierz.pl/dlibra/publication/1183/edition/1142/content
!!!ONB-nifc: UWAGA: części Nihil est in mundo: 1. Sonata, 2. Recitativo, 3. Aria
!!!key: A
**kern	**fba	**kern	**dynam	**kern	**dynam	**kern	**kern
*part5	*part5	*part4	*part4	*part3	*part3	*part2	*part1
*staff5	*	*staff4	*	*staff3	*	*staff2	*staff1
*I"Organo	*	*I"alto viola	*	*I"Violino 2do	*	*I"Violino 1mo	*I"Canto Solo
*I'org	*	*I'a-vla	*	*I'vl 2	*	*I'vl 1	*I'S solo
*Iorgan	*	*Iviola	*	*Ivioln	*	*Ivioln	*Isoprn
*ICklav	*	*ICstr	*	*ICstr	*	*ICstr	*ICvox
*IGcont	*	*	*	*	*	*	*
*clefF4	*	*clefC3	*	*clefG2	*	*clefG2	*clefC1
*k[f#c#g#]	*	*k[f#c#g#]	*	*k[f#c#g#]	*	*k[f#c#g#]	*k[f#c#g#]
*A:	*	*A:	*	*A:	*	*A:	*A:
*M3/4	*	*M3/4	*	*M3/4	*	*M3/4	*M3/4
=1	=1	=1	=1	=1	=1	=1	=1
!	!	!	!	!LO:TX:t=P:problem:krzyżyki:f#, cc#, ff# (jeden nad drugim), g#, gg# (rownież jeden nad drugim)	!	!LO:TX:t=P:problem:krzyżyki:f#, cc#, ff# (jeden nad drugim), g#, gg# (rownież jeden nad drugim)	!
!LO:TX:i:t=allegro	!	!LO:TX:t=Alle&colon;	!	!LO:TX:t=Allegro Solo	!	!LO:TX:t=allegro Solo	!LO:TX:t=Sonata \nTacet
4AA/	.	8cc#\L	.	4.aa\	.	4.aa\	2.ryy
.	.	8b\	.	.	.	.	.
4AA/	.	8cc#\	.	.	.	.	.
.	.	8b\	.	8a/L	.	8a/L	.
4AA/	.	8cc#\	.	8cc#/	.	8cc#/	.
.	.	8b\J	.	8ee/J	.	8ee/J	.
=2	=2	=2	=2	=2	=2	=2	=2
4A\	.	8c#/L	.	4.aa\	.	4.aa\	2.ryy
.	.	8B/	.	.	.	.	.
4A\	.	8c#/	.	.	.	.	.
.	.	8B/	.	8a/L	.	8a/L	.
4A\	.	8c#/	.	8cc#/	.	8cc#/	.
.	.	8B/J	.	8ee/J	.	8ee/J	.
=3	=3	=3	=3	=3	=3	=3	=3
!	!	!	!	!LO:TX:t=P:problem:mixed beam	!	!LO:TX:t=P:problem:mixed beam	!
8A\L	.	4.cc#\	.	8aa\L	.	8aa\L	2.ryy
8A\	.	.	.	8a/	.	8a/	.
8A\	.	.	.	8cc#/	.	8cc#/	.
8A\	.	8e\L	.	8ee/J	.	8ee/J	.
8A\	.	8e\	.	8aa\L	.	8aa\L	.
8A\J	.	8e\J	.	8gg#\J	.	8gg#\J	.
=4	=4	=4	=4	=4	=4	=4	=4
8A\L	.	4c#/	.	8aa\L	.	8aa\L	2.ryy
8A\	.	.	.	8ee\	.	8ee\	.
8A\	.	4r	.	8aa\	.	8aa\	.
8A\	.	.	.	8bb\	.	8bb\	.
8A\	.	4r	.	8ccc#\	.	8ccc#\	.
8A\J	.	.	.	8bb\J	.	8bb\J	.
=5	=5	=5	=5	=5	=5	=5	=5
4AA/	.	4c#/	.	16ccc#\LL	.	16ccc#\LL	2.ryy
.	.	.	.	16aa\	.	16aa\	.
.	.	.	.	16gg#\	.	16gg#\	.
.	.	.	.	16ff#\JJ	.	16ff#\JJ	.
4r	.	4r	.	16ee\LL	.	16ee\LL	.
.	.	.	.	16ff#\	.	16ff#\	.
.	.	.	.	16ee\	.	16ee\	.
.	.	.	.	16dd\JJ	.	16dd\JJ	.
4r	.	4r	.	16cc#\LL	.	16cc#\LL	.
.	.	.	.	16dd\	.	16dd\	.
.	.	.	.	16cc#\	.	16cc#\	.
.	.	.	.	16b\JJ	.	16b\JJ	.
=6	=6	=6	=6	=6	=6	=6	=6
4AA/	.	8r	.	4a/	.	4a/	2.ryy
.	.	16e\LL	.	.	.	.	.
.	.	16d\JJ	.	.	.	.	.
!	!	!LO:TX:t=Solo	!	!	!	!	!
4AA/	.	8c#\L	.	4r	.	4r	.
.	.	16e\L	.	.	.	.	.
.	.	16d\JJ	.	.	.	.	.
4AA/	.	8c#\L	.	4r	.	4r	.
.	.	8e\J	.	.	.	.	.
=7	=7	=7	=7	=7	=7	=7	=7
4BB/	.	16d\LL	.	0.r	.	0.r	2.ryy
.	.	16c#\	.	.	.	.	.
.	.	16B\	.	.	.	.	.
.	.	16c#\JJ	.	.	.	.	.
4BB/	.	16d\LL	.	.	.	.	.
.	.	16c#\	.	.	.	.	.
.	.	16B\	.	.	.	.	.
.	.	16c#\JJ	.	.	.	.	.
4E\	7	8d\L	.	.	.	.	.
.	.	16c#\L	.	.	.	.	.
.	.	16B\JJ	.	.	.	.	.
=8	=8	=8	=8	=8	=8	=8	=8
4AA/	.	8c#\L	.	.	.	.	2.ryy
.	.	16e\L	.	.	.	.	.
.	.	16d\JJ	.	.	.	.	.
4AA/	.	8c#/L	.	.	.	.	.
.	.	16B/L	.	.	.	.	.
.	.	16c#/JJ	.	.	.	.	.
4D/	6	16d\LL	.	.	.	.	.
.	.	16c#\	.	.	.	.	.
.	.	16B\	.	.	.	.	.
!	!	!LO:TX:a:t=P:problem:wszystkie custos użyte jako łamanie pięciolinii	!	!	!	!	!
.	.	16A\JJ	.	.	.	.	.
*	*	*custos:d	*	*	*	*	*
*	*	*custos:A	*	*	*	*	*
!	!	!LO:LB:g=original	!	!	!	!	!
=9	=9	=9	=9	=9	=9	=9	=9
4E\	.	8B\L	.	.	.	.	2.ryy
.	.	16e\L	.	.	.	.	.
.	.	16f#\JJ	.	.	.	.	.
4E\	.	8e\L	.	.	.	.	.
.	.	8B\J	.	.	.	.	.
4G#\	6 5	16e\LL	.	.	.	.	.
.	.	16d\	.	.	.	.	.
.	.	16c#\	.	.	.	.	.
.	.	16B\JJ	.	.	.	.	.
!LO:LB:g=original	!	!	!	!	!	!	!
=10	=10	=10	=10	=10	=10	=10	=10
8A\L	.	4.c#\	.	.	.	.	2.ryy
8A\	.	.	.	.	.	.	.
8A\	.	.	.	.	.	.	.
8A\J	.	8c#\	.	.	.	.	.
4A\	.	16f#\LL	.	.	.	.	.
.	.	16e\	.	.	.	.	.
.	.	16d#X\	.	.	.	.	.
.	.	16c#\JJ	.	.	.	.	.
=11	=11	=11	=11	=11	=11	=11	=11
!LO:TX:t=P:problem:mixed beam	!	!	!	!	!	!	!
8B\L	#	4.d#X\	.	1.r	.	1.r	2.ryy
8BB/	.	.	.	.	.	.	.
8BB/	.	.	.	.	.	.	.
8BB/	.	8f#\L	.	.	.	.	.
!	!	!LO:SIC:s=8gn	!	!	!	!	!
8BB/	.	8g-X\	.	.	.	.	.
8BB/J	.	8f#\J	.	.	.	.	.
=12	=12	=12	=12	=12	=12	=12	=12
!	!	!LO:SIC:s=8gn	!	!	!	!	!
8E\L	-	8g-X\L	.	.	.	.	2.ryy
8BB\	.	8f#\	.	.	.	.	.
!	!	!LO:SIC:s=8gn	!	!	!	!	!
8E\	.	8g-X\	.	.	.	.	.
8BB\	.	8f#\	.	.	.	.	.
!	!	!LO:SIC:s=8gn	!	!	!	!	!
8E\	.	8g-\	.	.	.	.	.
8BB\J	.	8e\J	.	.	.	.	.
=13	=13	=13	=13	=13	=13	=13	=13
!	!	!LO:SIC:s=8gn	!	!	!	!	!
4E\	-	8g-X\L	.	2.r	.	2.r	2.ryy
.	.	8e\J	.	.	.	.	.
4B\	.	4.d\	.	.	.	.	.
4BB/	#4r	.	.	.	.	.	.
.	.	8d\	.	.	.	.	.
=14	=14	=14	=14	=14	=14	=14	=14
8E\L	#	4e\	.	8e/L	.	8e/L	2.ryy
8E\	.	.	.	16f#/L	.	16f#/L	.
.	.	.	.	16g#/JJ	.	16g#/JJ	.
8E\	.	4r	.	16a/LL	.	16a/LL	.
.	.	.	.	16b/	.	16b/	.
8E\	.	.	.	16cc#/	.	16cc#/	.
.	.	.	.	16dd#X/JJ	.	16dd#X/JJ	.
8E\	.	4r	.	8ee\L	.	8ee\L	.
8E\J	.	.	.	8dd#X\J	.	8dd#X\J	.
=15	=15	=15	=15	=15	=15	=15	=15
4E\	.	0.r	.	16ee\LL	.	16ee\LL	2.ryy
.	.	.	.	16b\	.	16b\	.
.	.	.	.	16cc#\	.	16cc#\	.
.	.	.	.	16dd#X\JJ	.	16dd\JJ	.
4r	.	.	.	16ee\LL	.	16ee\LL	.
.	.	.	.	16dd#\	.	16ff#\	.
.	.	.	.	16ee\	.	16gg#\	.
.	.	.	.	16ff#\JJ	.	16aa\JJ	.
4E\	.	.	.	8gg#\L	.	8bb\L	.
.	.	.	.	8ff#\J	.	8aa\J	.
!	!	!	!	!LO:LB:g=original	!	!LO:LB:g=original	!
=16	=16	=16	=16	=16	=16	=16	=16
4E\	.	.	.	16ee\LL	.	16gg#\LL	2.ryy
.	.	.	.	16gg#\	.	16bb\	.
.	.	.	.	16ff#\	.	16aa\	.
.	.	.	.	16gg#\JJ	.	16bb\JJ	.
4E\	.	.	.	16ee\LL	.	16gg#\LL	.
.	.	.	.	16gg#\	.	16bb\	.
.	.	.	.	16ff#\	.	16aa\	.
.	.	.	.	16gg#\JJ	.	16bb\JJ	.
4E\	.	.	.	16aa\LL	.	16ccc#\LL	.
.	.	.	.	16ff#\	.	16aa\	.
.	.	.	.	16ee\	.	16gg#\	.
.	.	.	.	16ff#\JJ	.	16aa\JJ	.
=17	=17	=17	=17	=17	=17	=17	=17
4F#\	6\	.	.	16dd#X\LL	.	16ff#\LL	2.ryy
.	.	.	.	16ff#\	.	16aa\	.
.	.	.	.	16ee\	.	16gg#\	.
.	.	.	.	16ff#\JJ	.	16aa\JJ	.
4D#X/	.	.	.	16dd#X\LL	.	16ff#\LL	.
.	.	.	.	16ff#\	.	16aa\	.
.	.	.	.	16ee\	.	16gg#\	.
.	.	.	.	16ff#\JJ	.	16aa\JJ	.
4BB/	.	.	.	4dd#X\	.	16bb\LL	.
.	.	.	.	.	.	16gg#\	.
.	.	.	.	.	.	16ff#\	.
.	.	.	.	.	.	16gg#\JJ	.
=18	=18	=18	=18	=18	=18	=18	=18
4E\	.	.	.	4ee\	.	16ee\LL	2.ryy
.	.	.	.	.	.	16gg#\	.
.	.	.	.	.	.	16ff#\	.
.	.	.	.	.	.	16gg#\JJ	.
4C#/	.	.	.	8ee\L	.	16ee\LL	.
.	.	.	.	.	.	16gg#\	.
.	.	.	.	8ee\J	.	16ff#\	.
.	.	.	.	.	.	16gg#\JJ	.
!LO:TX:a:t=P:problem:wszystkie custos użyte jako łamanie pięciolinii	!	!	!	!	!	!	!
4AA/	.	.	.	4cc#\	.	16aa\LL	.
.	.	.	.	.	.	16gg#\	.
.	.	.	.	.	.	16ff#\	.
.	.	.	.	.	.	16ee\JJ	.
*custos:G	*	*	*	*	*	*	*
*custos:D	*	*	*	*	*	*	*
!LO:LB:g=original	!	!	!	!	!	!	!
=19	=19	=19	=19	=19	=19	=19	=19
4BB/	#	0.r	.	8f#/L	.	(16dd#X\LL	2.ryy
.	.	.	.	.	.	16b\	.
.	.	.	.	8f#/	.	16a\	.
.	.	.	.	.	.	16b\JJ)	.
4BB/	.	.	.	8f#/	.	(16dd#X\LL	.
.	.	.	.	.	.	16b\	.
.	.	.	.	8f#/	.	16a\	.
.	.	.	.	.	.	16b\JJ)	.
4BB/	6 4	.	.	8g#/	.	(16ee\LL	.
.	.	.	.	.	.	16b\	.
.	.	.	.	8g#/J	.	16a\	.
.	.	.	.	.	.	16b\JJ)	.
=20	=20	=20	=20	=20	=20	=20	=20
!	!	!	!	!LO:TX:t=P:problem:mixed beam	!	!	!
4BB/	#	.	.	8f#/L	.	16ff#\LL	2.ryy
.	.	.	.	.	.	(16b\	.
.	.	.	.	8dd#X\	.	16a\	.
.	.	.	.	.	.	16b\JJ)	.
4BB/	.	.	.	8dd#\	.	16ff#\LL	.
.	.	.	.	.	.	(16b\	.
.	.	.	.	8dd#\	.	16a\	.
.	.	.	.	.	.	16b\JJ)	.
4BB/	6 4	.	.	8ee\	.	16gg#\LL	.
.	.	.	.	.	.	(16b\	.
.	.	.	.	8ee\J	.	16a\	.
.	.	.	.	.	.	16b\JJ)	.
=21	=21	=21	=21	=21	=21	=21	=21
4BB/	#	.	.	4dd#X\	.	16aa\LL	2.ryy
.	.	.	.	.	.	(16ff#\	.
.	.	.	.	.	.	16ee\	.
.	.	.	.	.	.	16ff#\JJ)	.
4r	.	.	.	4r	.	16dd#X\LL	.
.	.	.	.	.	.	(16b\	.
.	.	.	.	.	.	16a\	.
.	.	.	.	.	.	16b\JJ)	.
!	!	!	!	!	!	!LO:LB:g=original	!
4BB/	.	.	.	4ff#\	.	16ff#\LL	.
.	.	.	.	.	.	(16b\	.
.	.	.	.	.	.	16a\	.
.	.	.	.	.	.	16b\JJ)	.
=22	=22	=22	=22	=22	=22	=22	=22
8F#\L	6\	.	.	4.dd#X\	.	4.aa\	2.ryy
8E\	.	.	.	.	.	.	.
8D#X\	.	.	.	.	.	.	.
8C#\J	.	.	.	8dd#\L	.	8aa\L	.
4BB/	.	.	.	8ee\	.	8gg#\	.
.	.	.	.	8dd#\J	.	8ff#\J	.
=23	=23	=23	=23	=23	=23	=23	=23
4E\	.	2.r	.	8ee\L	.	8gg#\L	2.ryy
.	.	.	.	8cc#\J	.	8ff#\J	.
4B\	4	.	.	4.dd#X\	.	4.ff#\	.
4BB/	#	.	.	.	.	.	.
.	.	.	.	8ee\	.	8ee\	.
=24	=24	=24	=24	=24	=24	=24	=24
4E\	.	8r	.	4ee\	.	4ee\	2.ryy
!	!	!LO:TX:t=Solo	!	!	!	!	!
.	.	8e\L	.	.	.	.	.
4A\	.	8c#\	.	4r	.	4r	.
.	.	8e\	.	.	.	.	.
4AA/	.	8c#\	.	4r	.	4r	.
.	.	8e\J	.	.	.	.	.
!	!	!	!	!LO:LB:g=original	!	!	!
=25	=25	=25	=25	=25	=25	=25	=25
4BB/	.	16d\LL	.	1.r	.	1.r	2.ryy
.	.	16c#\	.	.	.	.	.
.	.	16B\	.	.	.	.	.
.	.	16c#\JJ	.	.	.	.	.
*	*	*custos:f	*	*	*	*	*
*	*	*custos:d	*	*	*	*	*
4B\	.	8d\L	.	.	.	.	.
.	.	8B\	.	.	.	.	.
4E\	.	8d\	.	.	.	.	.
.	.	8B\J	.	.	.	.	.
=26	=26	=26	=26	=26	=26	=26	=26
!	!	!LO:TX:t=P:problem:mixed beam	!	!	!	!	!
4A\	.	8c#\L	.	.	.	.	2.ryy
.	.	8e\	.	.	.	.	.
4AA/	.	8e\	.	.	.	.	.
.	.	8a\	.	.	.	.	.
4D/	.	8a\	.	.	.	.	.
.	.	8c#/J	.	.	.	.	.
=27	=27	=27	=27	=27	=27	=27	=27
4E\	.	4B/	.	8r	.	8r	2.ryy
.	.	.	.	8ee\L	.	8ee\L	.
4C#/	6	4r	.	8ee\	.	8ee\	.
.	.	.	.	8ee\J	.	8ee\J	.
4C#/	.	4r	.	16aa\LL	.	16aa\LL	.
.	.	.	.	16gg#\	.	16gg#\	.
.	.	.	.	16ff#\	.	16ff#\	.
.	.	.	.	16ee\JJ	.	16ee\JJ	.
=28	=28	=28	=28	=28	=28	=28	=28
!	!	!LO:TX:t=3	!	!	!	!	!
4D/	.	1.r	.	8ff#\L	.	8ff#\L	2.ryy
.	.	.	.	8ff#\	.	8ff#\	.
4D/	.	.	.	8ff#\	.	8ff#\	.
.	.	.	.	8ff#\J	.	8ff#\J	.
4BB/	.	.	.	16bb\LL	.	16bb\LL	.
.	.	.	.	16aa\	.	16aa\	.
.	.	.	.	16gg#\	.	16gg#\	.
.	.	.	.	16ff#\JJ	.	16ff#\JJ	.
=29	=29	=29	=29	=29	=29	=29	=29
4E\	.	.	.	8gg#\L	.	8gg#\L	2.ryy
.	.	.	.	8ee\	.	8ee\	.
4D\	.	.	.	8ff#\	.	8ff#\	.
!	!	!	!	!	!	!LO:SIC:s=8gg#	!
.	.	.	.	8gg#\	.	8ff#\	.
4C#/	6 -3	.	.	8aa\	.	8aa\	.
.	.	.	.	8ggn\J	.	8ggn\J	.
=30	=30	=30	=30	=30	=30	=30	=30
4D/	#	2.r	.	8ff#\L	.	8ff#\L	2.ryy
.	.	.	.	8ee\	.	8ee\	.
4D/	.	.	.	8dd\	.	8dd\	.
.	.	.	.	8cc#\	.	8cc#\	.
*custos:G	*	*	*	*	*	*	*
*custos:E	*	*	*	*	*	*	*
!LO:LB:g=original	!	!	!	!	!	!	!
4D/	.	.	.	8b\	.	8b\	.
.	.	.	.	8a\J	.	8a\J	.
=31	=31	=31	=31	=31	=31	=31	=31
4E\	#	8e\L	.	8g#/L	.	16b/LL	2.ryy
.	.	.	.	.	.	(16e/	.
.	.	8e\	.	8g#/	.	16d/	.
.	.	.	.	.	.	16e/JJ)	.
4r	.	8e\	.	8g#/	.	16b/LL	.
.	.	.	.	.	.	(16e/	.
.	.	8e\	.	8g#/	.	16d/	.
.	.	.	.	.	.	16e/JJ)	.
4r	.	8e\	.	8a/	.	16cc#/LL	.
.	.	.	.	.	.	(16e/	.
.	.	8e\J	.	8a/J	.	16d/	.
.	.	.	.	.	.	16e/JJ)	.
!	!	!	!	!	!	!LO:LB:g=original	!
=32	=32	=32	=32	=32	=32	=32	=32
!	!	!	!	!	!	!LO:TX:t=P:problem:mixed beam	!
2.r	.	8e\L	.	8b/L	.	16dd\LL	2.ryy
.	.	.	.	.	.	(16e/	.
.	.	8e\	.	8b/	.	16d/	.
.	.	.	.	.	.	16e/JJ)	.
!	!	!	!	!	!	!LO:TX:t=P:problem:mixed beam	!
.	.	8e\	.	8b/	.	16dd\LL	.
.	.	.	.	.	.	(16e/	.
.	.	8e\	.	8b/	.	16d/	.
.	.	.	.	.	.	16e/JJ)	.
!	!	!	!	!	!	!LO:TX:t=P:problem:mixed beam	!
.	.	8e\	.	8a/	.	16cc#\LL	.
.	.	.	.	.	.	(16e/	.
.	.	8e\J	.	8a/J	.	16d/	.
.	.	.	.	.	.	16e/JJ)	.
=33	=33	=33	=33	=33	=33	=33	=33
!	!	!	!	!	!LO:DY:b:t=piano	!	!
4E\	#	8e\L	.	8g#/L	p	16b/LL	2.ryy
.	.	.	.	.	.	(16e/	.
.	.	8e\	.	8g#/	.	16d/	.
.	.	.	.	.	.	16e/JJ)	.
4r	.	8e\	.	8g#/	.	16b/LL	.
.	.	.	.	.	.	(16e/	.
!	!	!	!LO:DY:b:t=pia.	!	!	!	!
.	.	8e\	p	8g#/	.	16d/	.
.	.	.	.	.	.	16e/JJ)	.
4r	.	8e\	.	8a/	.	16cc#/LL	.
.	.	.	.	.	.	(16e/	.
.	.	8e\J	.	8a/J	.	16d/	.
.	.	.	.	.	.	16e/JJ)	.
=34	=34	=34	=34	=34	=34	=34	=34
!	!	!	!	!	!	!LO:TX:t=P:problem:mixed beam	!
2.r	.	8e\L	.	8b/L	.	16dd\LL	2.ryy
.	.	.	.	.	.	16e/	.
.	.	8e\	.	8b/	.	16d/	.
.	.	.	.	.	.	16e/JJ	.
!	!	!	!	!	!	!LO:TX:t=P:problem:mixed beam	!
.	.	8e\	.	8b/	.	16dd\LL	.
.	.	.	.	.	.	16e/	.
.	.	8e\	.	8b/	.	16d/	.
.	.	.	.	.	.	16e/JJ	.
!	!	!	!	!	!	!LO:TX:t=P:problem:mixed beam	!
.	.	8e\	.	8a/	.	16cc#\LL	.
.	.	.	.	.	.	16e/	.
.	.	8e\J	.	8a/J	.	16d/	.
.	.	.	.	.	.	16e/JJ	.
=35	=35	=35	=35	=35	=35	=35	=35
!	!	!	!	!LO:TX:t=P:problem:mixed beam	!	!	!
4E\	#	4e\	.	16g#/LL	.	16b\LL	2.ryy
.	.	.	.	16ee\	.	16ee\	.
.	.	.	.	16ee\	.	16ee\	.
.	.	.	.	16ee\JJ	.	16ee\JJ	.
8r	.	8r	.	16ee\LL	.	16ee\LL	.
.	.	.	.	16ee\JJ	.	16ee\	.
!	!	!	!	!LO:LB:g=original	!	!	!
8C#/L	6	8a\L	.	16ee\LL	.	16ee\	.
.	.	.	.	16ee\JJ	.	16ee\JJ	.
8AA/	.	8a\	.	16ee\LL	.	16ee\LL	.
.	.	.	.	16ff#\	.	16ff#\	.
8C#/J	.	8a\J	.	16dd\	.	16dd\	.
.	.	.	.	16ee\JJ	.	16ee\JJ	.
=36	=36	=36	=36	=36	=36	=36	=36
8D\L	5	8a\L	.	16ff#\LL	.	16ff#\LL	2.ryy
.	.	.	.	16ff#\	.	16ff#\	.
8D\J	.	8a\J	.	16ff#\	.	16ff#\	.
.	.	.	.	16ff#\JJ	.	16ff#\JJ	.
8r	.	8r	.	16ff#\LL	.	16ff#\LL	.
.	.	.	.	16ff#\	.	16ff#\	.
8D/L	6	8b\L	.	16ff#\	.	16ff#\	.
.	.	.	.	16ff#\JJ	.	16ff#\JJ	.
8BB/	.	8b\	.	16ff#\LL	.	16ff#\LL	.
.	.	.	.	16gg#\	.	16gg#\	.
8D/J	.	8b\J	.	16ee\	.	16ee\	.
.	.	.	.	16ff#\JJ	.	16ff#\JJ	.
!	!	!LO:LB:g=original	!	!	!	!	!
=37	=37	=37	=37	=37	=37	=37	=37
8E\L	5	8b\L	.	16gg#\LL	.	16gg#\LL	2.ryy
.	.	.	.	16gg#\	.	16gg#\	.
8E\J	.	8b\J	.	16gg#\	.	16gg#\	.
.	.	.	.	16gg#\JJ	.	16gg#\JJ	.
8r	.	8r	.	16gg#\LL	.	16gg#\LL	.
.	.	.	.	16gg#\	.	16gg#\	.
8E\L	6	8cc#\L	.	16gg#\	.	16gg#\	.
.	.	.	.	16gg#\JJ	.	16gg#\JJ	.
!	!	!	!	!	!	!LO:LB:g=original	!
8C#\	.	8cc#\	.	16gg#\LL	.	16gg#\LL	.
.	.	.	.	16aa\	.	16aa\	.
8E\J	.	8cc#\J	.	16ff#\	.	16ff#\	.
.	.	.	.	16gg#\JJ	.	16gg#\JJ	.
=38	=38	=38	=38	=38	=38	=38	=38
8F#\L	5	8cc#\L	.	16gg#\LL	.	16aa\LL	2.ryy
.	.	.	.	16gg#\	.	16aa\	.
8F#\J	.	8cc#\J	.	16gg#\	.	16aa\	.
.	.	.	.	16gg#\JJ	.	16aa\JJ	.
8r	.	8r	.	16gg#\LL	.	16aa\LL	.
.	.	.	.	16gg#\	.	16aa\	.
8F#\L	6	8dd\L	.	16gg#\	.	16aa\	.
.	.	.	.	16gg#\JJ	.	16aa\JJ	.
8D\	.	8dd\	.	16aa\LL	.	16aa\LL	.
.	.	.	.	16bb\	.	16bb\	.
8F#\J	.	8dd\J	.	16gg#\	.	16gg#\	.
.	.	.	.	16aa\JJ	.	16aa\JJ	.
=39	=39	=39	=39	=39	=39	=39	=39
8G#\L	5	4b\	.	16bb\LL	.	16bb\LL	2.ryy
.	.	.	.	16bb\	.	16bb\	.
8G#\J	.	.	.	16bb\	.	16bb\	.
.	.	.	.	16bb\JJ	.	16bb\JJ	.
8r	.	8r	.	16bb\LL	.	16bb\LL	.
.	.	.	.	16bb\	.	16bb\	.
8G#\L	6	8g#\L	.	16bb\	.	16bb\	.
.	.	.	.	16bb\JJ	.	16bb\JJ	.
8E\	.	8b\	.	16bb\LL	.	16bb\LL	.
.	.	.	.	16ccc#\	.	16ccc#\	.
8G#\J	.	8g#\J	.	16aa\	.	16aa\	.
.	.	.	.	16bb\JJ	.	16bb\JJ	.
!LO:LB:g=original	!	!	!	!	!	!	!
=40	=40	=40	=40	=40	=40	=40	=40
8A\L	.	8e\L	.	16ccc#\LL	.	16ccc#\LL	2.ryy
.	.	.	.	16ccc#\	.	16ccc#\	.
8E\J	.	8g#\	.	16bb\	.	16bb\	.
.	.	.	.	16bb\JJ	.	16bb\JJ	.
8AA/L	.	8e\	.	16ccc#\LL	.	16ccc#\LL	.
.	.	.	.	16ccc#\	.	16ccc#\	.
8E/	.	8g#\	.	16bb\	.	16bb\	.
.	.	.	.	16bb\JJ	.	16bb\JJ	.
8A/	.	8e\	.	16ccc#\LL	.	16ccc#\LL	.
.	.	.	.	16ccc#\	.	16ccc#\	.
8E/J	.	8g#\J	.	16bb\	.	16bb\	.
.	.	.	.	16bb\JJ	.	16bb\JJ	.
!	!	!	!	!LO:LB:g=original	!	!	!
=41	=41	=41	=41	=41	=41	=41	=41
4A\	.	8e\L	.	8ccc#\L	.	8ccc#\L	2.ryy
.	.	8f#\J	.	8aa\J	.	8aa\J	.
4E\	.	4e\	.	4.gg#\	.	4.gg#\	.
4EE/	4	4e\	.	.	.	.	.
.	3	.	.	8aa\	.	8aa\	.
=42	=42	=42	=42	=42	=42	=42	=42
4AA/	.	8c#/L	.	4.aa\	.	4.aa\	2.ryy
.	.	8B/	.	.	.	.	.
4AA/	.	8c#/	.	.	.	.	.
.	.	8B/	.	8a/L	.	8a/L	.
4AA/	.	8c#/	.	8cc#/	.	8cc#/	.
.	.	8B/J	.	8ee/J	.	8ee/J	.
=43	=43	=43	=43	=43	=43	=43	=43
4AA/	.	8c#/L	.	4.aa\	.	4.aa\	2.ryy
.	.	8B/	.	.	.	.	.
4AA/	.	8c#/	.	.	.	.	.
.	.	8B/	.	8a/L	.	8a/L	.
4AA/	.	8c#/	.	8cc#/	.	8cc#/	.
.	.	8B/J	.	8ee/J	.	8ee/J	.
=44	=44	=44	=44	=44	=44	=44	=44
!	!	!	!	!LO:TX:t=P:problem:mixed beam	!	!LO:TX:t=P:problem:mixed beam	!
8AA/L	.	16cc#\LL	.	16aa\LL	.	16aa\LL	2.ryy
.	.	16cc#\	.	16a/	.	16a/	.
8AA/	.	16cc#\	.	16cc#/	.	16cc#/	.
.	.	16cc#\JJ	.	16ee/JJ	.	16ee/JJ	.
!	!	!	!	!LO:TX:t=P:problem:mixed beam	!	!LO:TX:t=P:problem:mixed beam	!
8AA/	.	16cc#\LL	.	16aa\LL	.	16aa\LL	.
.	.	16cc#\	.	16a/	.	16a/	.
8AA/	.	16cc#\	.	16cc#/	.	16cc#/	.
.	.	16cc#\JJ	.	16ee/JJ	.	16ee/JJ	.
!	!	!	!	!LO:TX:t=P:problem:mixed beam	!	!LO:TX:t=P:problem:mixed beam	!
8AA/	.	16cc#\LL	.	16aa\LL	.	16aa\LL	.
.	.	16cc#\	.	16a/	.	16a/	.
8AA/J	.	16cc#\	.	16cc#/	.	16cc#/	.
.	.	16cc#\JJ	.	16ee/JJ	.	16ee/JJ	.
!	!	!LO:LB:g=original	!	!	!	!LO:LB:g=original	!
=45	=45	=45	=45	=45	=45	=45	=45
4A\	.	8cc#\L	.	8aa\L	.	8aa\L	2.ryy
.	.	16b\L	.	16gg#\L	.	16gg#\L	.
.	.	16a\JJ	.	16ff#\JJ	.	16ff#\JJ	.
4r	.	16g#\LL	.	16ee\LL	.	16ee\LL	.
.	.	16a\	.	16ff#\	.	16ff#\	.
.	.	16g#\	.	16ee\	.	16ee\	.
.	.	16f#\JJ	.	16dd\JJ	.	16dd\JJ	.
4r	.	16e\LL	.	16cc#\LL	.	16cc#\LL	.
.	.	16f#\	.	16dd\	.	16dd\	.
.	.	16e\	.	16cc#\	.	16cc#\	.
.	.	16d\JJ	.	16b\JJ	.	16b\JJ	.
=46	=46	=46	=46	=46	=46	=46	=46
4AA/	.	4c#\	.	8cc#\L	.	8cc#\L	2.ryy
.	.	.	.	8a\J	.	8aa\J	.
4E\	.	4e\	.	4.b/	.	4.b/	.
4EE/	.	4e\	.	.	.	.	.
.	.	.	.	8a/	.	8a/	.
=47	=47	=47	=47	=47	=47	=47	=47
2.AA/	.	2.c#/	.	2a/	.	2a/	2.ryy
.	.	.	.	4r	.	4r	.
==	==	==	==	==	==	==	==
*-	*-	*-	*-	*-	*-	*-	*-
!!!system-decoration: s1[(s2,s3,s4)]s5
!!!ENC: Kamil Watkowski
!!!END: 2020-11-24
!!!AIN: 1 organ 1 soprn 1 viola 2 violn
!!!ENC: Marta Lawrence
!!!END: 2022-03-06
